X:1
T:Title
%%score ( 1 2 ) 3
L:1/8
Q:1/4=160
M:3/2
K:Ab
V:1 treble nm="Grand Piano, Unnamed-000"
V:2 treble 
V:3 bass nm="Choir Pad, I Am Redeemed (Hill)"
V:1
 [CA]2 [CB]2 [CA]6 [CF]2 | [CG]2 [CA]2 [DG]4 [DG]4- | [DG]4 [DF]6 [DF]2 | [DG]2 [DF]2 [CE]8 | %4
w: By~Melvin~Joyner~Hill * * *||||
 [CA]2 [CB]2 [CA]6 [CF]2 | [CG]2 [CA]2 [EB]4 [EB]4- | [EB]4 [EB]6 [EG]2 | [EG]2 [=DF]2 E8 | %8
w: ||||
[M:6/4] z12 | z4 G2- G6- | G4 z2 z6 | z4 E2- E6- | E4 z2 z6 | z12 | z12 | z12 | z12 | z4 G2- G6- | %18
w: ||||||||||
 G4 z2 z6 | z4 E2- E6- | E4 z2 z6 | z12 | z12 | [DB]4 [CA]2- [CA]6- | [CA]6 z6 |] %25
w: |||||||
V:2
 x12 | x12 | x12 | x12 | x12 | x12 | x12 | x12 |[M:6/4] z4 [CE]2- [CE]4 [CF]2- | %9
 [CF]2 [CA]2 D2- D2 D2 D2- | D4 F2- F3- F/ z/ [EG]2- | [EG]2 [DF]2 C2- C2 C2 C2- | %12
 C4 [Ec]2- [Ec]2 [Ec]2 [Fd]2- | [Fd]2 [Ec]2 [EB]2- [EB]2 [Ec]2 [EB]2- | %14
 [EB]2 [=DA]2 [DA]2- [DA]2 [DF]2 [D=E]2- | [DE]2 [=DF]2 [_DG]2- [DG]6- | %16
 [DG]4 [CE]2- [CE]4 [CF]2- | [CF]2 [CA]2 D2- D2 D2 D2- | D4 F2- F3- F/ z/ [EG]2- | %19
 [EG]2 [DF]2 C2- C2 C2 C2- | C4 [Ec]2- [Ec]2 [Ec]2 [Ec]2- | %21
 [Ec]2 [Ec]2 [DB]2- [DB]2 [DA]2 [_CG]2- | [CG]2 [_CF]2 [=CE]2- [CE]2 [CA]2 [CA]2 | x12 | x12 |] %25
V:3
 [A,,E,]2 [A,,E,]2 [A,,E,]6 [A,,A,]2 | [A,,A,]2 [A,,A,]2 [B,,B,]4 [E,B,]4- | [E,B,]4 E,6 E,2 | %3
w: 1.~~ * * *|||
 E,2 E,2 [A,,A,]8 | [A,,E,]2 [A,,E,]2 [A,,E,]6 [A,,A,]2 | [A,,A,]2 [A,,A,]2 [G,,G,]4 [G,,G,]4- | %6
w: |||
 [G,,G,]4 [B,,G,]6 [B,,B,]2 | [B,,B,]2 [B,,B,]2 [E,G,]8 |[M:6/4] z4 [A,,A,]2- [A,,A,]4 [A,,A,]2- | %9
w: |||
 [A,,A,]2 [A,,A,]2 [B,,B,]2- [B,,B,]2 [E,D]2 [E,D]2- | [E,D]4 [E,D]2- [E,D]4 [E,B,]2- | %11
w: ||
 [E,B,]2 [E,G,]2 [A,,A,]2- [A,,A,]2 [A,C]2 [A,C]2- | [A,C]4 [A,,A,]2- [A,,A,]2 [A,,A,]2 [A,,A,]2- | %13
w: ||
 [A,,A,]2 [A,,A,]2 [E,G,]2- [E,G,]2 [E,A,]2 [E,G,]2- | %14
w: |
 [E,G,]2 [F,B,]2 [B,,B,]2- [B,,B,]2 [B,,B,]2 [B,,B,]2- | [B,,B,]2 [B,,B,]2 [E,B,]2- [E,B,]6- | %16
w: ||
 [E,B,]4 [A,,A,]2- [A,,A,]4 [A,,A,]2- | [A,,A,]2 [A,,A,]2 [B,,B,]2- [B,,B,]2 [E,D]2 [E,D]2- | %18
w: ||
 [E,D]4 [E,D]2- [E,D]4 [E,B,]2- | [E,B,]2 [E,G,]2 [A,,A,]2- [A,,A,]2 [A,C]2 [A,C]2- | %20
w: ||
 [A,C]4 [A,,A,]2- [A,,A,]2 [A,,A,]2 [B,,G,]2- | %21
w: |
 [B,,G,]2 [C,A,]2 [D,F,]2- [D,F,]2 [D,F,]2 [=D,A,]2- | %22
w: |
 [D,A,]2 [=D,A,]2 [E,A,]2- [E,A,]2 [E,A,]2 [E,A,]2 | [E,G,]4 [A,,E,A,]2- [A,,E,A,]6- | %24
w: ||
 [A,,E,A,]6 z6 |] %25
w: |

